svg/upload_circle_outline.svg

<svg xmlns="http://www.w3.org/2000/svg" id="mdi-upload-circle-outline" viewBox="0 0 24 24"><path d="M8 17V15H16V17H8M16 10L12 6L8 10H10.5V14H13.5V10H16M12 2C17.5 2 22 6.5 22 12C22 17.5 17.5 22 12 22C6.5 22 2 17.5 2 12C2 6.5 6.5 2 12 2M12 4C7.58 4 4 7.58 4 12C4 16.42 7.58 20 12 20C16.42 20 20 16.42 20 12C20 7.58 16.42 4 12 4Z" /></svg>

<svg xmlns="http://www.w3.org/2000/svg" viewBox="0 0 24 24"><path d="M8 17v-2h8v2zm8-7-4-4-4 4h2.5v4h3v-4zm-4-8c5.5 0 10 4.5 10 10s-4.5 10-10 10S2 17.5 2 12 6.5 2 12 2m0 2c-4.42 0-8 3.58-8 8s3.58 8 8 8 8-3.58 8-8-3.58-8-8-8"/></svg>
